T: Battle Of Falkirk Muir's March, The
M: 4/4
L: 1/8
K: Bmin
Bd dc d2 c>d|Bd de cA d>c|Bd dc d2 c>d|Gd dg cA d>c:|Bf fe f2 d>c|Bf fa cA d>c|Bf fe f2 e>d|Gd dg cA d>c|Bf fe f2 e>d|Bf fa cA d>c|Bf fe f2 e>d|Gd dg cA d>c||Bf ae f2 e>d|Bf ae cA d>c|Bf ae fa [ec']>d|Gd dg cA d>c:|
